dist/svg/u1F947.svg

<?xml version="1.0" encoding="UTF-8"?><svg id="a" xmlns="http://www.w3.org/2000/svg" viewBox="0 0 40 40"><rect width="40" height="40" fill="none"/><g><g><path d="M17.547,19.789h7.226c.369,0,.707-.209,.871-.541l7.601-15.345c.32-.646-.15-1.403-.871-1.403h-7.226c-.369,0-.707,.209-.871,.541l-7.601,15.345c-.32,.646,.15,1.403,.871,1.403Z" fill="#d12030"/><path d="M22.453,19.789h-7.226c-.369,0-.707-.209-.871-.541L6.755,3.903c-.32-.646,.15-1.403,.871-1.403h7.226c.369,0,.707,.209,.871,.541l7.601,15.345c.32,.646-.15,1.403-.871,1.403Z" fill="#ef4452"/><circle cx="20" cy="24.378" r="13.122" fill="#ffad00"/><circle cx="20" cy="24.378" r="10.497" fill="#ffc450"/></g><path d="M16.376,22.736v-2.474l3.283-2.053h1.991v11.761h-2.551v-8.915l-2.723,1.68Z" fill="#fff"/></g></svg>

<svg id="Layer_1" data-name="Layer 1" xmlns="http://www.w3.org/2000/svg" viewBox="0 0 40 40"><defs><style>.cls-1{fill:none;}.cls-2{fill:#d12030;}.cls-3{fill:#ef4452;}.cls-4{fill:#ffad00;}.cls-5{fill:#ffc450;}.cls-6{fill:#fff;}</style></defs><rect class="cls-1" width="40" height="40"/><path class="cls-2" d="M17.547,19.789h7.226a.973.973,0,0,0,.871-.541L33.245,3.9a.972.972,0,0,0-.871-1.4H25.148a.97.97,0,0,0-.87.541l-7.6,15.344A.972.972,0,0,0,17.547,19.789Z"/><path class="cls-3" d="M22.453,19.789H15.227a.973.973,0,0,1-.871-.541L6.755,3.9a.972.972,0,0,1,.871-1.4h7.226a.97.97,0,0,1,.87.541l7.6,15.344A.972.972,0,0,1,22.453,19.789Z"/><circle class="cls-4" cx="20" cy="24.378" r="13.122"/><circle class="cls-5" cx="20" cy="24.378" r="10.497"/><path class="cls-6" d="M16.376,22.736V20.262l3.283-2.053h1.992V29.97H19.1V21.056Z"/></svg>
